src/DGGeoclicker/skin/dark/img/DGSchedule__expandIcon_dark.svg

<svg xmlns="http://www.w3.org/2000/svg" width="10" height="6"><path fill-rule="evenodd" clip-rule="evenodd" fill="#A5A09C" d="M5 6h-.414l-4.586-4.586v-1.414h1.414l3.586 3.586 3.586-3.586h1.414v1.414l-4.586 4.586h-.414z"/></svg>

<svg xmlns="http://www.w3.org/2000/svg" width="10" height="6">
    <path d="M 5,6 H 4.586 L 0,1.414 V 0 H 1.414 L 5,3.586 8.586,0 H 10 V 1.414 L 5.414,6 H 5 z" fill="#a5a09c" fill-rule="evenodd"/>
</svg>
